Costumes/drums_conga-b.svg

<?xml version="1.0" encoding="UTF-8" standalone="no"?>
<svg
   version="1.1"
   width="102.9325"
   height="130.71538"
   viewBox="-1 -1 102.9325 130.71538"
   id="svg39"
   sodipodi:docname="drums_conga-b.svg"
   xmlns:inkscape="http://www.inkscape.org/namespaces/inkscape"
   xmlns:sodipodi="http://sodipodi.sourceforge.net/DTD/sodipodi-0.dtd"
   xmlns="http://www.w3.org/2000/svg"
   xmlns:svg="http://www.w3.org/2000/svg">
  <defs
     id="defs43" />
  <sodipodi:namedview
     id="namedview41"
     pagecolor="#ffffff"
     bordercolor="#000000"
     borderopacity="0.25"
     inkscape:showpageshadow="2"
     inkscape:pageopacity="0.0"
     inkscape:pagecheckerboard="0"
     inkscape:deskcolor="#d1d1d1" />
  <!-- Exported by Scratch - http://scratch.mit.edu/ -->
  <g
     id="ID0.6722033387050033"
     transform="translate(-189.53375,-101.98113)">
    <g
       id="ID0.598375441506505"
       transform="translate(189,129)">
      <g
         id="ID0.23455062322318554">
        <path
           id="ID0.10169604467228055"
           d="m 224.4,129.6 h 31.3 v 10.2 h -31.3 z"
           transform="matrix(0.77378094,0,0,0.77378094,-134.7,-88.35)" />
        <path
           id="ID0.17676780046895146"
           fill="none"
           stroke="#000000"
           stroke-width="3"
           stroke-linecap="round"
           d="m 240,133.8 v 84.8"
           transform="matrix(0.77378094,0,0,0.77378094,-134.7,-88.35)" />
        <path
           id="ID0.7235203105956316"
           fill="none"
           stroke="#000000"
           stroke-width="3"
           stroke-linecap="round"
           d="m 240,218.6 -39.5,23.3"
           transform="matrix(0.77378094,0,0,0.77378094,-134.7,-88.35)" />
        <path
           id="ID0.29433225095272064"
           fill="none"
           stroke="#000000"
           stroke-width="3"
           stroke-linecap="round"
           d="m 240,218.6 12.9,26.8"
           transform="matrix(0.77378094,0,0,0.77378094,-134.7,-88.35)" />
        <path
           id="ID0.8536502858623862"
           fill="none"
           stroke="#000000"
           stroke-width="3"
           stroke-linecap="round"
           d="m 240,218.6 31.7,20.1"
           transform="matrix(0.77378094,0,0,0.77378094,-134.7,-88.35)" />
        <g
           id="ID0.29893070133402944">
          <g
             id="ID0.05720469634979963">
            <path
               id="ID0.30205064406618476"
               fill="#ef3d23"
               stroke="#000000"
               stroke-width="0.5"
               d="m 175.1,120.5 6.3,66 c 15.7,2.7 31.5,2.7 47.2,0 l 6.3,-66 z"
               transform="matrix(0.77378094,0,0,0.77378094,-134.7,-88.35)" />
            <path
               id="ID0.7767447340302169"
               fill="#fcf9ce"
               stroke="#000000"
               stroke-width="0.5"
               d="m 175.1,122 5.1,51.7 4.1,-35.8 4.4,39.3 6.5,-39.8 9.8,45.2 11.8,-45.2 6,39.2 4.8,-41 2.3,38.1 5.1,-51.6 -59.9,-0.1"
               transform="matrix(0.77378094,0,0,0.77378094,-134.7,-88.35)" />
            <g
               id="ID0.6361037525348365">
              <g
                 id="ID0.21545314462855458">
                <path
                   id="ID0.2953310078009963"
                   fill="#cdcccc"
                   stroke="#000000"
                   stroke-width="0.5"
                   d="m 235,117.3 v 4.3 c 0,1.5 -13.4,2.6 -29.9,2.6 -16.5,0 -29.9,-1.2 -29.9,-2.7 v -4.3 c 0,1.5 13.4,2.7 29.9,2.7 16.5,0 29.9,-1.1 29.9,-2.6 z"
                   transform="matrix(0.77378094,0,0,0.77378094,-134.7,-88.35)" />
              </g>
              <path
                 id="ID0.8140953741967678"
                 fill="#fdcd9a"
                 stroke="#000000"
                 stroke-width="0.5"
                 d="m 205,114.6 c 8.249,0 15.724,0.303 21.137,0.791 5.413,0.489 8.763,1.164 8.763,1.909 0,0.745 -3.35,1.42 -8.763,1.909 C 220.724,119.697 213.249,120 205,120 c -8.249,0 -15.724,-0.303 -21.137,-0.791 -5.413,-0.489 -8.763,-1.164 -8.763,-1.909 0,-0.745 3.35,-1.42 8.763,-1.909 5.413,-0.488 12.888,-0.791 21.137,-0.791 z"
                 transform="matrix(0.77378094,0,0,0.77378094,-134.7,-88.35)" />
            </g>
          </g>
          <g
             id="ID0.4585443511605263">
            <path
               id="ID0.8543121106922626"
               fill="#ef3d23"
               stroke="#000000"
               stroke-width="0.5"
               d="m 245,122.1 6.3,76 c 15.7,3.1 31.5,3.1 47.2,0 l 6.3,-75.9 z"
               transform="matrix(0.77378094,0,0,0.77378094,-134.7,-88.35)" />
            <path
               id="ID0.2656680108048022"
               fill="#fcf9ce"
               stroke="#000000"
               stroke-width="0.5"
               d="m 245,123.9 5.1,59.5 4.1,-41.3 4.4,45.3 6.5,-45.9 9.9,52.1 11.8,-52.1 6,45.2 4.7,-47.2 2.4,43.8 5,-59.4 H 245"
               transform="matrix(0.77378094,0,0,0.77378094,-134.7,-88.35)" />
            <g
               id="ID0.6421318612992764">
              <g
                 id="ID0.33752196514979005">
                <path
                   id="ID0.468507481738925"
                   fill="#cdcccc"
                   stroke="#000000"
                   stroke-width="0.5"
                   d="m 304.9,118.4 v 4.9 c 0,1.7 -13.4,3 -29.9,3 -16.5,0 -29.9,-1.4 -29.9,-3.1 v -4.9 c 0,1.7 13.4,3.1 29.9,3.1 16.5,0.1 29.9,-1.3 29.9,-3 z"
                   transform="matrix(0.77378094,0,0,0.77378094,-134.7,-88.35)" />
              </g>
              <path
                 id="ID0.5917414026334882"
                 fill="#fdcd9a"
                 stroke="#000000"
                 stroke-width="0.5"
                 d="m 275,115.3 c 8.249,0 15.724,0.347 21.137,0.909 5.413,0.561 8.763,1.336 8.763,2.191 0,0.855 -3.35,1.63 -8.763,2.191 -5.413,0.562 -12.888,0.909 -21.137,0.909 -8.249,0 -15.724,-0.347 -21.137,-0.909 -5.413,-0.561 -8.763,-1.336 -8.763,-2.191 0,-0.855 3.35,-1.63 8.763,-2.191 5.413,-0.562 12.888,-0.909 21.137,-0.909 z"
                 transform="matrix(0.77378094,0,0,0.77378094,-134.7,-88.35)" />
            </g>
          </g>
        </g>
        <path
           id="ID0.9194828742183745"
           fill="#333333"
           stroke="#000000"
           stroke-width="0.5"
           d="m 240,132.8 c 0.524,0 0.999,0.213 1.343,0.557 0.344,0.344 0.557,0.819 0.557,1.343 0,0.524 -0.213,0.999 -0.557,1.343 -0.344,0.344 -0.819,0.557 -1.343,0.557 -0.524,0 -0.999,-0.213 -1.343,-0.557 -0.344,-0.344 -0.557,-0.819 -0.557,-1.343 0,-0.524 0.213,-0.999 0.557,-1.343 0.344,-0.344 0.819,-0.557 1.343,-0.557 z"
           transform="matrix(0.77378094,0,0,0.77378094,-134.7,-88.35)" />
      </g>
    </g>
    <g
       id="ID0.6983374934643507"
       transform="translate(187.75,100)">
      <path
         id="ID0.030173076782375574"
         fill="none"
         stroke="#000000"
         stroke-width="2"
         stroke-linecap="round"
         d="M 184,104 V 78"
         transform="matrix(0.77378094,0,0,0.77378094,-118.95,-57.85)" />
      <path
         id="path26"
         fill="none"
         stroke="#000000"
         stroke-width="2"
         stroke-linecap="round"
         d="M 184,104 V 78"
         transform="matrix(-0.57843107,0.51395959,0.51395959,0.57843107,67.9,-130.85)" />
      <path
         id="path28"
         fill="none"
         stroke="#000000"
         stroke-width="2"
         stroke-linecap="round"
         d="M 184,104 V 78"
         transform="matrix(0.57843107,0.51395965,-0.51395965,0.57843107,-20.5,-131.7)" />
    </g>
    <g
       id="ID0.9995748735964298"
       transform="translate(187.75,100)">
      <path
         id="path31"
         fill="none"
         stroke="#000000"
         stroke-width="2"
         stroke-linecap="round"
         d="M 184,104 V 78"
         transform="matrix(0.77378094,0,0,0.77378094,-61.8,-58.6)" />
      <path
         id="path33"
         fill="none"
         stroke="#000000"
         stroke-width="2"
         stroke-linecap="round"
         d="M 184,104 V 78"
         transform="matrix(-0.57843107,0.51395959,0.51395959,0.57843107,125.15,-131.65)" />
      <path
         id="path35"
         fill="none"
         stroke="#000000"
         stroke-width="2"
         stroke-linecap="round"
         d="M 184,104 V 78"
         transform="matrix(0.57843107,0.51395965,-0.51395965,0.57843107,36.6,-132.5)" />
    </g>
  </g>
</svg>

<svg version="1.1" width="105" height="104" viewBox="-1 -1 105 104" xmlns="http://www.w3.org/2000/svg" xmlns:xlink="http://www.w3.org/1999/xlink">
  <!-- Exported by Scratch - http://scratch.mit.edu/ -->
  <g id="ID0.6722033387050033" transform="matrix(1, 0, 0, 1, -188, -101)">
    <g id="ID0.598375441506505" transform="matrix(1, 0, 0, 1, 189, 129)">
      <g id="ID0.23455062322318554">
        <path id="ID0.10169604467228055" d="M 224.400 129.600 L 255.700 129.600 L 255.700 139.800 L 224.400 139.800 L 224.400 129.600 Z " transform="matrix(0.7737809419631958, 0, 0, 0.7737809419631958, -134.7, -88.35)"/>
        <path id="ID0.17676780046895146" fill="none" stroke="#000000" stroke-width="3" stroke-linecap="round" d="M 240 133.800 L 240 218.600 " transform="matrix(0.7737809419631958, 0, 0, 0.7737809419631958, -134.7, -88.35)"/>
        <path id="ID0.7235203105956316" fill="none" stroke="#000000" stroke-width="3" stroke-linecap="round" d="M 240 218.600 L 200.500 241.900 " transform="matrix(0.7737809419631958, 0, 0, 0.7737809419631958, -134.7, -88.35)"/>
        <path id="ID0.29433225095272064" fill="none" stroke="#000000" stroke-width="3" stroke-linecap="round" d="M 240 218.600 L 252.900 245.400 " transform="matrix(0.7737809419631958, 0, 0, 0.7737809419631958, -134.7, -88.35)"/>
        <path id="ID0.8536502858623862" fill="none" stroke="#000000" stroke-width="3" stroke-linecap="round" d="M 240 218.600 L 271.700 238.700 " transform="matrix(0.7737809419631958, 0, 0, 0.7737809419631958, -134.7, -88.35)"/>
        <g id="ID0.29893070133402944">
          <g id="ID0.05720469634979963">
            <path id="ID0.30205064406618476" fill="#EF3D23" stroke="#000000" stroke-width="0.5" d="M 175.100 120.500 L 181.400 186.500 C 197.100 189.200 212.900 189.200 228.600 186.500 L 234.900 120.500 L 175.100 120.500 Z " transform="matrix(0.7737809419631958, 0, 0, 0.7737809419631958, -134.7, -88.35)"/>
            <path id="ID0.7767447340302169" fill="#FCF9CE" stroke="#000000" stroke-width="0.5" d="M 175.100 122 L 180.200 173.700 L 184.300 137.900 L 188.700 177.200 L 195.200 137.400 L 205 182.600 L 216.800 137.400 L 222.800 176.600 L 227.600 135.600 L 229.900 173.700 L 235 122.100 L 175.100 122 " transform="matrix(0.7737809419631958, 0, 0, 0.7737809419631958, -134.7, -88.35)"/>
            <g id="ID0.6361037525348365">
              <g id="ID0.21545314462855458">
                <path id="ID0.2953310078009963" fill="#CDCCCC" stroke="#000000" stroke-width="0.5" d="M 235 117.300 L 235 121.600 C 235 123.100 221.600 124.200 205.100 124.200 C 188.600 124.200 175.200 123 175.200 121.500 L 175.200 117.200 C 175.200 118.700 188.600 119.900 205.100 119.900 C 221.600 119.900 235 118.800 235 117.300 Z " transform="matrix(0.7737809419631958, 0, 0, 0.7737809419631958, -134.7, -88.35)"/>
              </g>
              <path id="ID0.8140953741967678" fill="#FDCD9A" stroke="#000000" stroke-width="0.5" d="M 205 114.600 C 213.249 114.600 220.724 114.903 226.137 115.391 C 231.550 115.880 234.900 116.555 234.900 117.300 C 234.900 118.045 231.550 118.720 226.137 119.209 C 220.724 119.697 213.249 120 205 120 C 196.751 120 189.276 119.697 183.863 119.209 C 178.450 118.720 175.100 118.045 175.100 117.300 C 175.100 116.555 178.450 115.880 183.863 115.391 C 189.276 114.903 196.751 114.600 205 114.600 Z " transform="matrix(0.7737809419631958, 0, 0, 0.7737809419631958, -134.7, -88.35)"/>
            </g>
          </g>
          <g id="ID0.4585443511605263">
            <path id="ID0.8543121106922626" fill="#EF3D23" stroke="#000000" stroke-width="0.5" d="M 245 122.100 L 251.300 198.100 C 267 201.200 282.800 201.200 298.500 198.100 L 304.800 122.200 L 245 122.100 Z " transform="matrix(0.7737809419631958, 0, 0, 0.7737809419631958, -134.7, -88.35)"/>
            <path id="ID0.2656680108048022" fill="#FCF9CE" stroke="#000000" stroke-width="0.5" d="M 245 123.900 L 250.100 183.400 L 254.200 142.100 L 258.600 187.400 L 265.100 141.500 L 275 193.600 L 286.800 141.500 L 292.800 186.700 L 297.500 139.500 L 299.900 183.300 L 304.900 123.900 L 245 123.900 " transform="matrix(0.7737809419631958, 0, 0, 0.7737809419631958, -134.7, -88.35)"/>
            <g id="ID0.6421318612992764">
              <g id="ID0.33752196514979005">
                <path id="ID0.468507481738925" fill="#CDCCCC" stroke="#000000" stroke-width="0.5" d="M 304.900 118.400 L 304.900 123.300 C 304.900 125 291.500 126.300 275 126.300 C 258.500 126.300 245.100 124.900 245.100 123.200 L 245.100 118.300 C 245.100 120 258.500 121.400 275 121.400 C 291.500 121.500 304.900 120.100 304.900 118.400 Z " transform="matrix(0.7737809419631958, 0, 0, 0.7737809419631958, -134.7, -88.35)"/>
              </g>
              <path id="ID0.5917414026334882" fill="#FDCD9A" stroke="#000000" stroke-width="0.5" d="M 275 115.300 C 283.249 115.300 290.724 115.647 296.137 116.209 C 301.550 116.770 304.900 117.545 304.900 118.400 C 304.900 119.255 301.550 120.030 296.137 120.591 C 290.724 121.153 283.249 121.500 275 121.500 C 266.751 121.500 259.276 121.153 253.863 120.591 C 248.450 120.030 245.100 119.255 245.100 118.400 C 245.100 117.545 248.450 116.770 253.863 116.209 C 259.276 115.647 266.751 115.300 275 115.300 Z " transform="matrix(0.7737809419631958, 0, 0, 0.7737809419631958, -134.7, -88.35)"/>
            </g>
          </g>
        </g>
        <path id="ID0.9194828742183745" fill="#333333" stroke="#000000" stroke-width="0.5" d="M 240 132.800 C 240.524 132.800 240.999 133.013 241.343 133.357 C 241.687 133.701 241.900 134.176 241.900 134.700 C 241.900 135.224 241.687 135.699 241.343 136.043 C 240.999 136.387 240.524 136.600 240 136.600 C 239.476 136.600 239.001 136.387 238.657 136.043 C 238.313 135.699 238.100 135.224 238.100 134.700 C 238.100 134.176 238.313 133.701 238.657 133.357 C 239.001 133.013 239.476 132.800 240 132.800 Z " transform="matrix(0.7737809419631958, 0, 0, 0.7737809419631958, -134.7, -88.35)"/>
      </g>
    </g>
    <g id="ID0.6983374934643507" transform="matrix(1, 0, 0, 1, 187.75, 100)">
      <path id="ID0.030173076782375574" fill="none" stroke="#000000" stroke-width="2" stroke-linecap="round" d="M 184 104 L 184 78 " transform="matrix(0.7737809419631958, 0, 0, 0.7737809419631958, -118.95, -57.85)"/>
      <path id="ID0.030173076782375574" fill="none" stroke="#000000" stroke-width="2" stroke-linecap="round" d="M 184 104 L 184 78 " transform="matrix(-0.5784310698509216, 0.5139595866203308, 0.5139595866203308, 0.5784310698509216, 67.9, -130.85)"/>
      <path id="ID0.030173076782375574" fill="none" stroke="#000000" stroke-width="2" stroke-linecap="round" d="M 184 104 L 184 78 " transform="matrix(0.5784310698509216, 0.5139596462249756, -0.5139596462249756, 0.5784310698509216, -20.5, -131.7)"/>
    </g>
    <g id="ID0.9995748735964298" transform="matrix(1, 0, 0, 1, 187.75, 100)">
      <path id="ID0.030173076782375574" fill="none" stroke="#000000" stroke-width="2" stroke-linecap="round" d="M 184 104 L 184 78 " transform="matrix(0.7737809419631958, 0, 0, 0.7737809419631958, -61.8, -58.6)"/>
      <path id="ID0.030173076782375574" fill="none" stroke="#000000" stroke-width="2" stroke-linecap="round" d="M 184 104 L 184 78 " transform="matrix(-0.5784310698509216, 0.5139595866203308, 0.5139595866203308, 0.5784310698509216, 125.15, -131.65)"/>
      <path id="ID0.030173076782375574" fill="none" stroke="#000000" stroke-width="2" stroke-linecap="round" d="M 184 104 L 184 78 " transform="matrix(0.5784310698509216, 0.5139596462249756, -0.5139596462249756, 0.5784310698509216, 36.6, -132.5)"/>
    </g>
  </g>
</svg>
